third_party/noto/noto_2/emoji_u1f686.svg

<svg enable-background="new 0 0 128 128" version="1.1" viewBox="0 0 128 128" xmlns="http://www.w3.org/2000/svg"><path d="m29.3 105.76s-0.37 1.11-0.38 1.98 0.12 2.64 1.68 2.64c2.02 0 24.86-0.07 35.87 0s31.28-0.14 32.7-0.22c1.42-0.07 1.03-3.22 0.94-4.3l-70.81-0.1z" fill="#543529"/><path d="m102.23 116.02 2.89 1.99s1.87 1.63 2.12 2.61-0.33 2.84-1.16 3.23l-43.34 0.15-40.42-0.12c-0.63-0.16-1.39-0.77-1.58-1.89s0.43-2.37 0.82-3.15 8.43-2.81 8.43-2.81l72.24-0.01z" fill="#874D36"/><path d="m25.89 113.94c-0.78 0.01-1.35 0.94-1.82 1.55-1.22 1.57-1.99 2.56-2.5 3.35-0.7 1.09 0.7 2.03 1.95 2.03s83.39 0.12 83.59-0.41c0.27-0.7-1.33-3.09-2.65-5.29-0.46-0.77-1.46-1.82-2.36-1.81l-76.21 0.58z" fill="#B88956"/><path d="m32.22 100.82-2.78 4.53c-0.48 0.78 0.08 1.78 1 1.78l68.52-0.04c0.91 0 1.47-0.99 1.01-1.77l-2.69-4.51h-65.06z" fill="#A06841"/><path d="m47.25 101.55-8.15 22.39h-4.94l-2.83-5.39 9.04-19.45c0-0.01 7.33 1 6.88 2.45z" fill="#88857C"/><path d="m28.81 123.97c0.12-0.42 8.45-17.94 8.45-17.94 0.52-1.09 4.91-0.6 4.2 1.46s-5.74 16.44-5.74 16.44l-6.91 0.04z" fill="#C8C9C6"/><path d="m79.99 101.55 8.19 22.36 4.89-0.01 2.84-5.35-9.04-19.45c0.01-0.01-7.33 1-6.88 2.45z" fill="#88857C"/><path d="m98.42 123.88c-0.12-0.42-8.47-17.91-8.47-17.91-0.52-1.09-4.91-0.6-4.2 1.46 0.72 2.06 5.76 16.47 5.76 16.47l6.91-0.02z" fill="#C8C9C6"/><path d="m100.2 98.08c0.14 1.71-0.9 3.24-2.36 3.48-4.85 0.77-16.44 2.24-34.54 2.24-17.97 0-29.3-1.45-34.09-2.23-1.48-0.24-2.51-1.8-2.35-3.53l-0.02-17.14h73.38l-0.02 17.18z" fill="#82AEC0"/><path d="m26.84 80.9v6.06s17.38 0.9 36.68 0.9 36.69-1.04 36.69-1.04v-5.92h-73.37z" fill="#546E7A"/><path d="m63.38 84.79 0.14-24.05-37.7-7.16-0.66 23.42v5.59c0 0.89 0.69 1.62 1.57 1.67 3.17 0.19 12.25 0.53 36.65 0.53z" fill="#E0E0E0"/><path d="m96.76 8.01c-4.84-1.97-14.5-4.01-33.23-4.01s-28.4 2.04-33.24 4.01c-1.99 0.81-3.29 3.95-3.29 6.13l-1.18 39.43 10.53 15.61 26.91 13.01c33.58 0 38.83-0.29 38.83-0.29l-2.05-67.76c0.01-2.18-1.29-5.32-3.28-6.13z" fill="#2167A1"/><path d="m94.49 9.42c-4.53-1.84-13.44-3.68-30.96-3.68s-26.44 1.84-30.96 3.68c-1.86 0.76-3.08 3.03-3.08 5.07l0.16 24.39c0.03 5.42 3.57 10.2 8.74 11.83l25.86 8.75 24.82-8.67c5.18-1.67 8.68-6.51 8.65-11.95l-0.16-24.25c0-2.04-1.21-4.41-3.07-5.17z" fill="#2686C6"/><polygon points="93.51 31.48 66.25 31.48 66.61 14.81 91.48 14.81" fill="#BAE2FD"/><path d="m91.64 12.95h-24.58c-0.92 0-1.65 0.99-1.59 2.16l0.46 16.19c0.05 1.07 0.75 1.9 1.59 1.9h25.35c1.22 0 2.12-1.44 1.86-2.96l-1.55-15.7c-0.15-0.93-0.8-1.59-1.54-1.59zm-22.41 2.77h20.45c0.73 0 1.36 0.63 1.54 1.53l0.95 10.64c0.26 1.29-0.5 2.54-1.54 2.54h-21.13c-0.83 0-1.52-0.82-1.58-1.88l-0.26-10.64c-0.08-1.18 0.65-2.19 1.57-2.19z" fill="#37474F"/><polygon points="34.49 31.48 61.75 31.48 61.39 14.81 36.52 14.81" fill="#BAE2FD"/><path d="m34.81 14.54-1.55 15.7c-0.26 1.52 0.64 2.96 1.86 2.96h25.35c0.84 0 1.53-0.83 1.59-1.9l0.46-16.19c0.06-1.17-0.67-2.16-1.59-2.16h-24.57c-0.74 0-1.39 0.66-1.55 1.59zm25.54 3.37-0.26 10.64c-0.06 1.06-0.75 1.88-1.58 1.88h-21.15c-1.04 0-1.8-1.25-1.54-2.54l0.95-10.64c0.18-0.9 0.81-1.53 1.54-1.53h20.45c0.93 0 1.66 1.01 1.59 2.19z" fill="#37474F"/><path d="m84.01 43.89c-1.15-2.57-3.12-3.54-5.19-3.03s-3.14 2.55-2.83 4.66c0.41 2.87 3.06 5.7 6.42 4.12 2.18-1.02 2.74-3.21 1.6-5.75z" fill="#01579B"/><circle cx="79.73" cy="44.6" r="3.13" fill="#F44336"/><path d="m43.99 43.89c1.15-2.57 3.12-3.54 5.19-3.03s3.14 2.55 2.83 4.66c-0.41 2.87-3.06 5.7-6.42 4.12-2.18-1.02-2.74-3.21-1.6-5.75z" fill="#01579B"/><circle cx="48.27" cy="44.6" r="3.13" fill="#F44336"/><path d="m63.53 60.73-37.7-7.16-0.67 23.43v5.59c0 0.89 0.69 1.62 1.57 1.67 3.17 0.19 12.25 0.53 36.65 0.53h0.14s2.15-4.36 2.15-11.7-2.14-12.36-2.14-12.36z" fill="#E0E0E0"/><path d="m63.53 60.73 37.7-7.16 0.66 23.43v5.59c0 0.89-0.69 1.62-1.57 1.67-3.17 0.19-12.25 0.53-36.65 0.53h-0.14v-24.06z" fill="#BDBDBD"/><path d="m25.16 82.59c0 0.89 0.69 1.62 1.57 1.67 3.17 0.19 12.25 0.53 36.65 0.53h0.14 0.14c24.4 0 33.48-0.34 36.65-0.53 0.88-0.05 1.57-0.78 1.57-1.67v-5.54h-76.72v5.54z" fill="#424242" opacity=".2"/><path d="m31.7 89.75c-1.38-0.14-2.57 0.95-2.57 2.34 0 3.12 0.05 6.52 2.21 7.19 2.38 0.74 15.73 1.48 22.07 1.68 1.38 0.04 2.49-1.11 2.41-2.48l-0.3-5.1c-0.07-1.22-1.07-2.18-2.29-2.21-7.87-0.13-17.11-0.97-21.53-1.42z" fill="#94D1E0"/><circle cx="85.76" cy="66.23" r="5.88" fill="#757575"/><circle cx="85.76" cy="66.82" r="4.32" fill="#FFFDE7"/><circle cx="42.24" cy="66.23" r="5.88" fill="#9E9E9E"/><circle cx="42.24" cy="66.82" r="4.32" fill="#FFFDE7"/><polygon points="57.55 30.42 50.22 30.42 40.72 15.72 48.06 15.72" fill="#fff"/><polygon points="87.28 30.42 79.94 30.42 70.45 15.72 77.78 15.72" fill="#fff"/></svg>

<?xml version="1.0" encoding="utf-8"?>
<!-- Generator: Adobe Illustrator 25.2.3, SVG Export Plug-In . SVG Version: 6.00 Build 0)  -->
<svg version="1.1" id="Layer_6" xmlns="http://www.w3.org/2000/svg" xmlns:xlink="http://www.w3.org/1999/xlink" x="0px" y="0px"
	 viewBox="0 0 128 128" style="enable-background:new 0 0 128 128;" xml:space="preserve">
<g>
	<g>
		<path style="fill:#543529;" d="M29.3,105.76c0,0-0.37,1.11-0.38,1.98s0.12,2.64,1.68,2.64c2.02,0,24.86-0.07,35.87,0
			s31.28-0.14,32.7-0.22c1.42-0.07,1.03-3.22,0.94-4.3L29.3,105.76z"/>
		<path style="fill:#874D36;" d="M102.23,116.02l2.89,1.99c0,0,1.87,1.63,2.12,2.61c0.25,0.98-0.33,2.84-1.16,3.23L62.74,124
			l-40.42-0.12c-0.63-0.16-1.39-0.77-1.58-1.89s0.43-2.37,0.82-3.15c0.39-0.78,8.43-2.81,8.43-2.81L102.23,116.02z"/>
		<path style="fill:#B88956;" d="M25.89,113.94c-0.78,0.01-1.35,0.94-1.82,1.55c-1.22,1.57-1.99,2.56-2.5,3.35
			c-0.7,1.09,0.7,2.03,1.95,2.03s83.39,0.12,83.59-0.41c0.27-0.7-1.33-3.09-2.65-5.29c-0.46-0.77-1.46-1.82-2.36-1.81L25.89,113.94z
			"/>
		<path style="fill:#A06841;" d="M32.22,100.82l-2.78,4.53c-0.48,0.78,0.08,1.78,1,1.78l68.52-0.04c0.91,0,1.47-0.99,1.01-1.77
			l-2.69-4.51H32.22z"/>
		<g>
			<g>
				<path style="fill:#88857C;" d="M47.25,101.55l-8.15,22.39h-4.94l-2.83-5.39l9.04-19.45C40.37,99.09,47.7,100.1,47.25,101.55z"/>
				<path style="fill:#C8C9C6;" d="M28.81,123.97c0.12-0.42,8.45-17.94,8.45-17.94c0.52-1.09,4.91-0.6,4.2,1.46
					s-5.74,16.44-5.74,16.44L28.81,123.97z"/>
			</g>
			<g>
				<path style="fill:#88857C;" d="M79.99,101.55l8.19,22.36l4.89-0.01l2.84-5.35l-9.04-19.45C86.88,99.09,79.54,100.1,79.99,101.55
					z"/>
				<path style="fill:#C8C9C6;" d="M98.42,123.88c-0.12-0.42-8.47-17.91-8.47-17.91c-0.52-1.09-4.91-0.6-4.2,1.46
					c0.72,2.06,5.76,16.47,5.76,16.47L98.42,123.88z"/>
			</g>
		</g>
	</g>
	<path style="fill:#82AEC0;" d="M100.2,98.08c0.14,1.71-0.9,3.24-2.36,3.48c-4.85,0.77-16.44,2.24-34.54,2.24
		c-17.97,0-29.3-1.45-34.09-2.23c-1.48-0.24-2.51-1.8-2.35-3.53L26.84,80.9h73.38L100.2,98.08z"/>
	<path style="fill:#546E7A;" d="M26.84,80.9l0,6.06c0,0,17.38,0.9,36.68,0.9s36.69-1.04,36.69-1.04V80.9H26.84z"/>
	<path style="fill:#E0E0E0;" d="M63.38,84.79l0.14-24.05l-37.7-7.16L25.16,77l0,5.59c0,0.89,0.69,1.62,1.57,1.67
		C29.9,84.45,38.98,84.79,63.38,84.79z"/>
	<g>
		<path style="fill:#2167A1;" d="M96.76,8.01C91.92,6.04,82.26,4,63.53,4S35.13,6.04,30.29,8.01C28.3,8.82,27,11.96,27,14.14
			l-1.18,39.43l10.53,15.61l26.91,13.01c33.58,0,38.83-0.29,38.83-0.29l-2.05-67.76C100.05,11.96,98.75,8.82,96.76,8.01z"/>
		<path style="fill:#2686C6;" d="M94.49,9.42c-4.53-1.84-13.44-3.68-30.96-3.68S37.09,7.58,32.57,9.42
			c-1.86,0.76-3.08,3.03-3.08,5.07l0.16,24.39c0.03,5.42,3.57,10.2,8.74,11.83l25.86,8.75l24.82-8.67
			c5.18-1.67,8.68-6.51,8.65-11.95l-0.16-24.25C97.56,12.55,96.35,10.18,94.49,9.42z"/>
	</g>
	<g>
		<g>
			<polygon style="fill:#BAE2FD;" points="93.51,31.48 66.25,31.48 66.61,14.81 91.48,14.81 			"/>
			<path style="fill:#37474F;" d="M91.64,12.95H67.06c-0.92,0-1.65,0.99-1.59,2.16l0.46,16.19c0.05,1.07,0.75,1.9,1.59,1.9h25.35
				c1.22,0,2.12-1.44,1.86-2.96l-1.55-15.7C93.03,13.61,92.38,12.95,91.64,12.95z M69.23,15.72h20.45c0.73,0,1.36,0.63,1.54,1.53
				l0.95,10.64c0.26,1.29-0.5,2.54-1.54,2.54H69.5c-0.83,0-1.52-0.82-1.58-1.88l-0.26-10.64C67.58,16.73,68.31,15.72,69.23,15.72z"
				/>
		</g>
		<g>
			<polygon style="fill:#BAE2FD;" points="34.49,31.48 61.75,31.48 61.39,14.81 36.52,14.81 			"/>
			<path style="fill:#37474F;" d="M34.81,14.54l-1.55,15.7c-0.26,1.52,0.64,2.96,1.86,2.96h25.35c0.84,0,1.53-0.83,1.59-1.9
				l0.46-16.19c0.06-1.17-0.67-2.16-1.59-2.16H36.36C35.62,12.95,34.97,13.61,34.81,14.54z M60.35,17.91l-0.26,10.64
				c-0.06,1.06-0.75,1.88-1.58,1.88H37.36c-1.04,0-1.8-1.25-1.54-2.54l0.95-10.64c0.18-0.9,0.81-1.53,1.54-1.53h20.45
				C59.69,15.72,60.42,16.73,60.35,17.91z"/>
		</g>
	</g>
	<g>
		<g>
			<g>
				<g>
					<path style="fill:#01579B;" d="M84.01,43.89c-1.15-2.57-3.12-3.54-5.19-3.03c-2.07,0.51-3.14,2.55-2.83,4.66
						c0.41,2.87,3.06,5.7,6.42,4.12C84.59,48.62,85.15,46.43,84.01,43.89z"/>
				</g>
			</g>
			<g>
				<g>
					<circle style="fill:#F44336;" cx="79.73" cy="44.6" r="3.13"/>
				</g>
			</g>
		</g>
		<g>
			<g>
				<g>
					<path style="fill:#01579B;" d="M43.99,43.89c1.15-2.57,3.12-3.54,5.19-3.03c2.07,0.51,3.14,2.55,2.83,4.66
						c-0.41,2.87-3.06,5.7-6.42,4.12C43.41,48.62,42.85,46.43,43.99,43.89z"/>
				</g>
			</g>
			<g>
				<g>
					<circle style="fill:#F44336;" cx="48.27" cy="44.6" r="3.13"/>
				</g>
			</g>
		</g>
	</g>
	<path style="fill:#E0E0E0;" d="M63.53,60.73l-37.7-7.16L25.16,77l0,5.59c0,0.89,0.69,1.62,1.57,1.67
		c3.17,0.19,12.25,0.53,36.65,0.53c0.05,0,0.09,0,0.14,0c0,0,2.15-4.36,2.15-11.7S63.53,60.73,63.53,60.73z"/>
	<path style="fill:#BDBDBD;" d="M63.53,60.73l37.7-7.16L101.89,77l0,5.59c0,0.89-0.69,1.62-1.57,1.67
		c-3.17,0.19-12.25,0.53-36.65,0.53c-0.05,0-0.09,0-0.14,0V60.73z"/>
	<path style="opacity:0.2;fill:#424242;" d="M25.16,82.59c0,0.89,0.69,1.62,1.57,1.67c3.17,0.19,12.25,0.53,36.65,0.53
		c0.05,0,0.09,0,0.14,0l0,0v0c0.05,0,0.09,0,0.14,0c24.4,0,33.48-0.34,36.65-0.53c0.88-0.05,1.57-0.78,1.57-1.67l0-5.54H25.16
		L25.16,82.59z"/>
	<path style="fill:#94D1E0;" d="M31.7,89.75c-1.38-0.14-2.57,0.95-2.57,2.34c0,3.12,0.05,6.52,2.21,7.19
		c2.38,0.74,15.73,1.48,22.07,1.68c1.38,0.04,2.49-1.11,2.41-2.48l-0.3-5.1c-0.07-1.22-1.07-2.18-2.29-2.21
		C45.36,91.04,36.12,90.2,31.7,89.75z"/>
	<g>
		<g>
			<g>
				<g>
					<circle style="fill:#757575;" cx="85.76" cy="66.23" r="5.88"/>
				</g>
			</g>
			<g>
				<g>
					<circle style="fill:#FFFDE7;" cx="85.76" cy="66.82" r="4.32"/>
				</g>
			</g>
		</g>
		<g>
			<g>
				<g>
					<circle style="fill:#9E9E9E;" cx="42.24" cy="66.23" r="5.88"/>
				</g>
			</g>
			<g>
				<g>
					<circle style="fill:#FFFDE7;" cx="42.24" cy="66.82" r="4.32"/>
				</g>
			</g>
		</g>
	</g>
</g>
<g>
	<g>
		<g>
			<g>
				<polygon style="fill:#FFFFFF;" points="57.55,30.42 50.22,30.42 40.72,15.72 48.06,15.72 				"/>
			</g>
		</g>
	</g>
	<g>
		<g>
			<g>
				<polygon style="fill:#FFFFFF;" points="87.28,30.42 79.94,30.42 70.45,15.72 77.78,15.72 				"/>
			</g>
		</g>
	</g>
</g>
</svg>
